packages/foundations/assets/icons/functional/images/date & time/alarm_clock_plus_14.svg

<svg width="14" height="14" viewBox="0 0 14 14" fill="none" xmlns="http://www.w3.org/2000/svg">
<g clip-path="url(#clip0_185_652)">
<path fill-rule="evenodd" clip-rule="evenodd" d="M10.4556 1.40002C11.4778 1.40002 12.3444 2.22221 12.3444 3.26669C12.3444 3.93336 11.9889 4.53332 11.4555 4.88888C11.7445 5.53336 11.9 6.24447 11.9 6.97784C11.9 8.13339 11.5222 9.1778 10.8778 10.0222L11.7889 11.4889C11.8572 11.599 11.9 11.7333 11.9 11.8667C11.9 12.2667 11.6111 12.5778 11.2111 12.5778C10.9889 12.5778 10.7734 12.4625 10.6334 12.2445L9.83336 11C9.03336 11.5555 8.05558 11.8889 7.0111 11.8889C5.96669 11.8889 4.98891 11.5555 4.18891 11.0222L3.38891 12.2667C3.24875 12.4847 3.03336 12.6 2.83332 12.6C2.23336 12.6 1.94372 11.9774 2.23336 11.5112L3.14443 10.0444C2.52221 9.20006 2.12221 8.13339 2.12221 6.97784C2.12221 6.26673 2.2778 5.55562 2.56665 4.91114C2.01113 4.55558 1.65558 3.93336 1.65558 3.28888C1.65558 2.24447 2.52221 1.40002 3.52225 1.40002C4.25554 1.40002 4.94447 1.82228 5.25558 2.4445C5.83336 2.20002 6.36669 2.11114 7.0111 2.11114C7.63332 2.11114 8.18891 2.17784 8.76669 2.3778C9.09999 1.77777 9.74447 1.40002 10.4556 1.40002ZM7.03232 3.48891C5.08734 3.48891 3.49999 5.07619 3.49999 7.02125C3.49999 8.96631 5.08734 10.5536 7.03232 10.5536C8.97738 10.5536 10.5647 8.96631 10.5647 7.02125C10.5647 5.07619 8.97738 3.48891 7.03232 3.48891ZM7.70003 4.90002L7.70001 6.30002H9.10001V7.70002H7.70001L7.70003 9.10002H6.29998L6.30001 7.70002H4.90001V6.30002H6.30001L6.29998 4.90002H7.70003Z" fill="#1A1C1F"/>
</g>
<defs>
<clipPath id="clip0_185_652">
<rect width="14" height="14" fill="white"/>
</clipPath>
</defs>
</svg>

<svg xmlns="http://www.w3.org/2000/svg" width="14" height="14" fill="none"><g clip-path="url(#a)"><path fill="#1A1C1F" fill-rule="evenodd" d="M10.456 1.4c1.022 0 1.888.822 1.888 1.867 0 .666-.355 1.266-.888 1.622.289.644.444 1.355.444 2.089 0 1.155-.378 2.2-1.022 3.044l.91 1.467a.73.73 0 0 1 .112.378c0 .4-.289.71-.689.71a.69.69 0 0 1-.578-.332L9.833 11a4.95 4.95 0 0 1-2.822.889 5.1 5.1 0 0 1-2.822-.867l-.8 1.245c-.14.218-.356.333-.556.333-.6 0-.89-.623-.6-1.089l.911-1.467a5.2 5.2 0 0 1-1.022-3.066c0-.711.156-1.422.445-2.067-.556-.355-.911-.978-.911-1.622 0-1.045.866-1.889 1.866-1.889.734 0 1.422.422 1.734 1.045.577-.245 1.11-.334 1.755-.334.622 0 1.178.067 1.756.267.333-.6.977-.978 1.689-.978M7.032 3.489A3.54 3.54 0 0 0 3.5 7.02a3.54 3.54 0 0 0 3.532 3.533 3.54 3.54 0 0 0 3.533-3.533A3.54 3.54 0 0 0 7.032 3.49M7.7 4.9v1.4h1.4v1.4H7.7v1.4H6.3V7.7H4.9V6.3h1.4V4.9z" clip-rule="evenodd"/></g><defs><clipPath id="a"><path fill="#fff" d="M0 0h14v14H0z"/></clipPath></defs></svg>
